X:1
T:Title
%%score { ( 1 3 5 ) | ( 2 4 ) }
L:1/8
M:4/4
K:Bb
V:1 treble nm="Grand Piano"
V:3 treble 
V:5 treble 
V:2 bass 
V:4 bass 
V:1
 z4 z2 z[Q:1/4=100] [Bd] | [Bd]2 [Bd]2 [Be]3 [Bd] | [Bc]2 [Af]2 [Bd]2 [Bd]2 | %3
 [Be]3 [Be] [Be]2 [Bg]2 | c6 [Ac]2 | [Ad]4 z4 | [cf]4 [Bd]2 z2 | [Ac]2 [cf]2 [Bf]2 [c=e]2 | %8
 [cf]6 [ce]2 | [Bd]2 .[Bc]2 [Bd]2 [Ac]2 | [FB]6 [ce]2 | [ce]4 z4 | [df]4 z4 | [=Bg]4 z4 | %14
 [ce]6 [Ae]2 | [Bd]3 [Ac] [FB]2 [Bd]2 | f4 z4 | [Bc]2 B2 [Bd]2 [Ac]2 | %18
[M:7/8] [FB]-[FB]-[FB]- [FB]3 z |] %19
V:2
 z4 z2 z [B,,F,] | [B,,F,]2 [B,,F,]2 [B,,G,]3 [B,,F,] | F,2 [F,,F,]2 [B,,F,]2 [B,,F,]2 | %3
 [E,G,]3 [E,G,] [E,G,]2 [=E,G,]2 | z2[K:treble] AG A2[K:bass] [E,F,]2 | %5
 [D,^F,]=E,F,[D,F,] G,2 G,2 | [F,A,]G,A,[F,A,] .[B,,B,]2 [=B,,F,]2 | %7
 [C,F,]2 [C,A,]2 [C,G,]2 [C,B,]2 | [F,A,]6 [F,,A,]2 | [B,,B,]2 z[K:treble] B[K:bass] F,2 [F,,E,]2 | %10
 [B,,D,]6 [F,,F,]2 | [F,,F,]2 z[K:treble] B[K:bass] [F,,F,]2 [F,,F,]2 | %12
 [F,,F,]2 z[K:treble] c[K:bass] [B,,F,]2 [B,,F,]2 | %13
 [G,,G,]2 z[K:treble] =B[K:bass] [G,,G,]2 [G,,G,]2 | [C,G,]6 [F,,F,]2 | .B,,2 F,2 z4 | F,2 F,2 z4 | %17
 [E,G,]2 [E,G,]2 F,2 [F,,E,]2 |[M:7/8] [B,,D,]-[B,,D,]-[B,,D,]- [B,,D,]3 z |] %19
V:3
 x8 | x8 | x8 | x8 | B2 z2 z4 | z G,A,[Ac] [GB]2 [Bd]2 | z B,C[ce] z F, [_Ad]2 | x8 | x8 | x8 | %10
 x8 | z2 z d [Ac]2 [df]2 | z2 z e [Bd]2 [Bd]2 | z2 z f [=Be]2 [Bd]2 | x8 | x8 | %16
 ABc[Ae] [Bd]2 [Bd]2 | x8 |[M:7/8] x7 |] %19
V:4
 x8 | x8 | x8 | x8 | F,6[K:treble][K:bass] z2 | x8 | x8 | x8 | x8 | %9
 z2 [E,G,]2[K:treble][K:bass] z4 | x8 | z2 F,,2[K:treble][K:bass] z4 | %12
 z2 F,,2[K:treble][K:bass] z4 | z2 G,,2[K:treble][K:bass] z4 | x8 | %15
 F,-[D,F,] z F,, [D,F,]2 [B,,F,]2 | F,,G,,A,,F,, [B,,F,]2 [B,,F,]2 | x8 |[M:7/8] x7 |] %19
V:5
 x8 | x8 | x8 | x8 | x8 | x8 | x8 | x8 | x8 | x8 | x8 | z2 F,2 z4 | z2 F,2 z4 | z2 G,2 z4 | x8 | %15
 x8 | x8 | x8 |[M:7/8] x7 |] %19

